images/tdf-logo-only.svg

<svg viewBox="0 0 500 500" xmlns="http://www.w3.org/2000/svg"><defs><linearGradient id="a"><stop style="stop-color:#eaeaea"/></linearGradient></defs><path style="fill:#ee4540" d="M0 0h500v500H0z"/><path d="M325.794 261.169c-87.788-6.457-161.305 63.135-161.305 149.59a148.92 148.92 0 0 0 6.379 43.187c18.595 61.728 75.923 106.807 143.629 106.807 63.84 0 118.438-40.106 140.059-96.401 8.029-20.946 11.569-44.108 9.218-68.322-6.974-72.134-65.679-129.508-137.98-134.861zM176.517 448.326a142.38 142.38 0 0 1-5.027-37.567c0-81.781 68.976-147.723 151.818-142.75 69.273 4.161 126.168 58.672 133.438 127.67 2.029 19.269.083 37.809-4.946 55.049l-109.897-109.86-74.382 74.35-28.974-28.944-62.03 62.052z" style="fill:url(#a)" transform="matrix(1.5 0 0 1.5 -221.733 -366.13)"/></svg>

<?xml version="1.0" encoding="utf-8"?>
<svg viewBox="0 0 500 500" xmlns="http://www.w3.org/2000/svg">
  <defs>
    <linearGradient id="color-3">
      <stop style="stop-color: #eaeaea;"/>
    </linearGradient>
  </defs>
  <rect width="500" height="500" style="fill: rgb(238, 69, 64);"/>
  <path d="M 325.794 261.169 C 238.006 254.712 164.489 324.304 164.489 410.759 C 164.489 425.786 166.733 440.272 170.868 453.946 C 189.463 515.674 246.791 560.753 314.497 560.753 C 378.337 560.753 432.935 520.647 454.556 464.352 C 462.585 443.406 466.125 420.244 463.774 396.03 C 456.8 323.896 398.095 266.522 325.794 261.169 Z M 176.517 448.326 C 173.246 436.351 171.49 423.757 171.49 410.759 C 171.49 328.978 240.466 263.036 323.308 268.009 C 392.581 272.17 449.476 326.681 456.746 395.679 C 458.775 414.948 456.829 433.488 451.8 450.728 L 341.903 340.868 L 267.521 415.218 L 238.547 386.274 L 176.517 448.326 Z" style="fill: url(#color-3);" transform="matrix(1.499999, 0, 0, 1.500001, -221.733307, -366.130005)"/>
</svg>
